X: 10673
T: JACKY TAR
N: Arranged by W.B. Laybourn
R: hornpipe, reel
B: K\"ohler's Violin Repository, v.1, 1885 p.67 #3
F: http://www.archive.org/details/klersviolinrepos01edin
Z: 2012 John Chambers <jc:trillian.mit.edu>
N: This is a version of the Staten Island Hornpipe.
M: C|
L: 1/8
K: Em
uB2 |\
e2e2 efge | d2B2 B2(dB) | ABde faef | d2A2 A2(Bd) |\
e2ef g2fe | dBGB d2(BA) | GFGE DEFA | G2E2 E2 :||: u(GA) |
BGEG BGEG | BAGF E2(FG) | AFDF AFDF | AGFE D2(EF) |\
(GF)GE g2ge | dBGB d2(BA) | GFGE DEFA | G2E2 E2 :|

%%sep 2 1 500

